X: 37692
T: Snug In The Blanket
R: jig
M: 6/8
K: Dmajor
e2f gfg|~A3 g2e|faf gec|dcd f2d|
e2f gfg|~A3 g2e|faf gec|dfe d3:|
c2d eAA|eAf ecA|c2d ecA|Bcd f2e|
c2d eAA|eAf ecA|f/g/af gec|1 dfe d3:|2 dfe d2f||

